Papirus/22x22/symbolic/categories/applications-games-symbolic.svg

<svg xmlns="http://www.w3.org/2000/svg" width="22" height="22" version="1.1">
 <defs>
  <style id="current-color-scheme" type="text/css">
   .ColorScheme-Text { color:#444444; } .ColorScheme-Highlight { color:#4285f4; } .ColorScheme-NeutralText { color:#ff9800; } .ColorScheme-PositiveText { color:#4caf50; } .ColorScheme-NegativeText { color:#f44336; }
  </style>
 </defs>
 <path style="fill:currentColor" class="ColorScheme-Text" d="M 15.236328 5 C 14.995328 5.0012 14.773453 5.0765007 14.564453 5.2246094 C 14.037453 5.6016946 12.9387 5.9983966 11 6 C 9.0612995 6 7.9627469 5.6016946 7.4355469 5.2246094 C 7.2272469 5.0765009 7.0274562 5.0047571 6.7851562 5.0058594 C 6.5427563 5.0068594 6.2634156 5.071491 5.9785156 5.2246094 C 4.9411156 5.7722497 3.98745 7.565584 3.46875 9.890625 C 3.02659 11.865638 2.8633531 14.566082 3.1269531 15.652344 C 3.3565331 16.586288 3.7532244 17 4.4589844 17 C 5.5048844 16.98196 6.8190437 15.81441 7.6523438 14.244141 C 8.2550438 13.374329 9.6528995 12.956209 11 13 C 12.347 12.9529 13.744656 13.374329 14.347656 14.244141 C 15.180656 15.81441 16.495016 16.981962 17.541016 17 C 18.247016 17 18.643047 16.586288 18.873047 15.652344 C 19.137047 14.566082 18.97325 11.865638 18.53125 9.890625 C 18.01325 7.565584 17.059484 5.7722497 16.021484 5.2246094 C 15.737484 5.0720918 15.477328 4.9988977 15.236328 5 z M 7 8 L 8 8 L 8 9 L 9 9 L 9 10 L 8 10 L 8 11 L 7 11 L 7 10 L 6 10 L 6 9 L 7 9 L 7 8 z M 14.5 8 A 0.5 0.5 0 0 1 15 8.5 A 0.5 0.5 0 0 1 14.5 9 A 0.5 0.5 0 0 1 14 8.5 A 0.5 0.5 0 0 1 14.5 8 z M 13.5 9 A 0.5 0.5 0 0 1 14 9.5 A 0.5 0.5 0 0 1 13.5 10 A 0.5 0.5 0 0 1 13 9.5 A 0.5 0.5 0 0 1 13.5 9 z M 15.5 9 A 0.5 0.5 0 0 1 16 9.5 A 0.5 0.5 0 0 1 15.5 10 A 0.5 0.5 0 0 1 15 9.5 A 0.5 0.5 0 0 1 15.5 9 z M 14.5 10 A 0.5 0.5 0 0 1 15 10.5 A 0.5 0.5 0 0 1 14.5 11 A 0.5 0.5 0 0 1 14 10.5 A 0.5 0.5 0 0 1 14.5 10 z"/>
</svg>

<svg xmlns="http://www.w3.org/2000/svg" width="22" height="22" version="1.1">
 <defs>
  <style id="current-color-scheme" type="text/css">
   .ColorScheme-Text { color:#444444; } .ColorScheme-Highlight { color:#4285f4; } .ColorScheme-NeutralText { color:#ff9800; } .ColorScheme-PositiveText { color:#4caf50; } .ColorScheme-NegativeText { color:#f44336; }
  </style>
 </defs>
 <path style="fill:currentColor" class="ColorScheme-Text" d="m 15.235979,5.0250001 c -0.241,0.0012 -0.463,0.0768 -0.672,0.2246 -0.527,0.3763 -1.6253,0.7797 -3.564,0.7813 -1.9387005,0 -3.0373005,-0.405 -3.5645005,-0.7813 -0.2083,-0.1478 -0.408,-0.2198 -0.6503,-0.2187 -0.2424,10e-4 -0.5218,0.0659 -0.8067,0.2187 -1.0374,0.5465 -1.99105,2.3361 -2.50975,4.6563 -0.44216,1.9708999 -0.6054,4.6660999 -0.3418,5.7500999 0.22958,0.932 0.62629,1.344 1.33205,1.344 1.0459,-0.018 2.36,-1.183 3.1933,-2.75 0.6027,-0.868 2.0006,-1.2628 3.3477005,-1.2191 1.347,-0.047 2.745,0.3511 3.348,1.2191 0.833,1.567 2.147,2.732 3.193,2.75 0.706,0 1.102,-0.412 1.332,-1.344 0.264,-1.084 0.1,-3.7792 -0.342,-5.7500999 -0.518,-2.3202 -1.472,-4.1098 -2.51,-4.6563 -0.284,-0.1522 -0.544,-0.2257 -0.785,-0.2246 z m -8.2028005,3.0059 h 0.9922 v 1 h 0.9902 V 10.0309 h -0.9902 v 1 h -0.9922 v -1 h -0.9922 V 9.0309001 h 0.9922 z m 7.4378005,0 c 0.274,0 0.496,0.2239 0.496,0.5 0,0.2762 -0.222,0.5 -0.496,0.5 -0.274,0 -0.494,-0.2238 -0.494,-0.5 0,-0.2761 0.22,-0.5 0.494,-0.5 z m -0.991,1 c 0.274,0 0.497,0.2239 0.497,0.5 0,0.2762 -0.223,0.4999999 -0.497,0.4999999 -0.273,0 -0.4956,-0.2237999 -0.4956,-0.4999999 0,-0.2761 0.2226,-0.5 0.4956,-0.5 z m 1.983,0 c 0.274,0 0.496,0.2239 0.496,0.5 0,0.2762 -0.222,0.4999999 -0.496,0.4999999 -0.274,0 -0.496,-0.2237999 -0.496,-0.4999999 0,-0.2761 0.222,-0.5 0.496,-0.5 z m -0.992,0.9999999 c 0.274,0 0.496,0.2239 0.496,0.5 0,0.2762 -0.222,0.5 -0.496,0.5 -0.274,0 -0.494,-0.2238 -0.494,-0.5 0,-0.2761 0.22,-0.5 0.494,-0.5 z"/>
</svg>
